icons/tag-arrow-down-outline.svg

<svg xmlns="http://www.w3.org/2000/svg" width="24" height="24" viewBox="0 0 24 24">
  <path d="M13,2 C13.2652165,2 13.5195704,2.10535684 13.7071068,2.29289322 L13.7071068,2.29289322 L21.2928932,9.87867966 C22.4644661,11.0502525 22.4644661,12.9497475 21.2928932,14.1213203 L21.2928932,14.1213203 L14.1213203,21.2928932 C12.9497475,22.4644661 11.0502525,22.4644661 9.87867966,21.2928932 L9.87867966,21.2928932 L2.29289322,13.7071068 C2.10535684,13.5195704 2,13.2652165 2,13 L2,13 L2,5 C2,3.34314575 3.34314575,2 5,2 L5,2 Z M12.585,4 L5,4 C4.44771525,4 4,4.44771525 4,5 L4,5 L4,12.585 L11.2928932,19.8786797 C11.6533772,20.2391636 12.2206082,20.2668932 12.6128994,19.9618683 L12.6128994,19.9618683 L12.7071068,19.8786797 L19.8786797,12.7071068 C20.2692039,12.3165825 20.2692039,11.6834175 19.8786797,11.2928932 L19.8786797,11.2928932 L12.585,4 Z M12,8 C12.5522847,8 13,8.44771525 13,9 L13,9 L13,12.585 L14.2928932,11.2928932 L14.3871006,11.2097046 C14.7793918,10.9046797 15.3466228,10.9324093 15.7071068,11.2928932 C16.0976311,11.6834175 16.0976311,12.3165825 15.7071068,12.7071068 L15.7071068,12.7071068 L12.7071068,15.7071068 L12.625449,15.7803112 C12.6225624,15.7826279 12.6196628,15.7849289 12.6128994,15.7902954 C12.6070733,15.7948255 12.6012086,15.7992821 12.5951593,15.8036865 C12.5711307,15.8215099 12.546275,15.8382813 12.5207088,15.8540045 C12.5086131,15.8613931 12.4963944,15.8685012 12.484277,15.8751242 C12.4642939,15.8862061 12.4438914,15.8966234 12.4232215,15.9063266 L12.4232215,15.9063266 L12.3710585,15.928896 C12.3515792,15.9366843 12.3317977,15.9438775 12.3121425,15.9502619 C12.2968513,15.9552713 12.2814633,15.9599023 12.2658396,15.964279 C12.2444365,15.9701664 12.2227461,15.9753602 12.2007258,15.9797599 C12.1833753,15.9832978 12.165949,15.9863719 12.1489612,15.9889807 L12.1489612,15.9889807 L12.08,15.996 L12.045,15.998 L12.019,15.999 L12,16 C11.9935938,16 11.9872016,15.9999398 11.980824,15.9998198 L11.980824,15.9998198 L11.9409686,15.9982669 C11.9308872,15.9976744 11.9208131,15.99693 11.909968,15.996002 L11.909968,15.996002 L11.8515331,15.9889822 C11.834051,15.9863719 11.8166247,15.9832978 11.7992059,15.9798348 C11.7772539,15.9753602 11.7555635,15.9701664 11.734007,15.9641549 C11.7185367,15.9599023 11.7031487,15.9552713 11.6882636,15.9504533 C11.6682023,15.9438775 11.6484208,15.9366843 11.628664,15.9287745 L11.628664,15.9287745 L11.5769009,15.9063462 C11.5561086,15.8966234 11.5357061,15.8862061 11.5159379,15.8753288 L11.5159379,15.8753288 L11.4793398,15.8539326 C11.453725,15.8382813 11.4288693,15.8215099 11.4046934,15.8036654 L11.4046934,15.8036654 L11.38,15.784 L11.3832499,15.787214 L11.378,15.783 L11.374551,15.7803112 L11.359,15.767 L11.347434,15.757792 L11.347434,15.757792 L11.2928932,15.7071068 L8.29289322,12.7071068 L8.20970461,12.6128994 C7.90467972,12.2206082 7.93240926,11.6533772 8.29289322,11.2928932 C8.68341751,10.9023689 9.31658249,10.9023689 9.70710678,11.2928932 L9.70710678,11.2928932 L11,12.585 L11,9 L11.0067277,8.88337887 C11.0644928,8.38604019 11.4871642,8 12,8 Z"/>
</svg>

<svg xmlns="http://www.w3.org/2000/svg" viewBox="0 0 24 24">
  <path d="M13 2a1 1 0 0 1 .7.3l7.6 7.58a3 3 0 0 1 0 4.24l-7.18 7.17a3 3 0 0 1-4.24 0l-7.59-7.58A1 1 0 0 1 2 13V5a3 3 0 0 1 3-3zm-.41 2H5a1 1 0 0 0-1 1v7.59l7.3 7.29a1 1 0 0 0 1.31.08l.1-.08 7.17-7.17a1 1 0 0 0 0-1.42L12.58 4zM12 8a1 1 0 0 1 1 1v3.59l1.3-1.3.09-.08a1 1 0 0 1 1.32 1.5l-3 3-.08.07a3 3 0 0 1-.15.1l-.06.03-.05.02a.95.95 0 0 1-.22.06h-.13L12 16h-.09l-.06-.01a1.1 1.1 0 0 1-.22-.06l-.05-.02a1.04 1.04 0 0 1-.06-.03l-.04-.03a1.03 1.03 0 0 1-.08-.05l-.02-.02-.02-.01-.01-.01-.06-.05-3-3-.08-.1a1 1 0 0 1 1.5-1.32L11 12.6V8.88A1 1 0 0 1 12 8z"/>
</svg>
